app/public/icons/navGoverno.svg

<svg width="25" height="25" viewBox="0 0 25 25" fill="none" xmlns="http://www.w3.org/2000/svg">
<g clip-path="url(#clip0_316_979)">
<path d="M11.7239 0.205078C12.2024 -0.0683594 12.7933 -0.0683594 13.2767 0.205078L21.6653 4.99512L21.8753 5.07812V5.12207L24.2142 6.45996C24.8294 6.81152 25.1321 7.53418 24.9515 8.21777C24.7708 8.90137 24.1507 9.37988 23.4427 9.37988H1.5628C0.854787 9.37988 0.23467 8.90137 0.0540062 8.21777C-0.126658 7.53418 0.176077 6.81152 0.791311 6.45996L3.1253 5.12207V5.07812L3.34014 5L11.7239 0.205078ZM3.1253 10.9375H6.25029V20.3125H8.20342V10.9375H11.3284V20.3125H13.6722V10.9375H16.7972V20.3125H18.7503V10.9375H21.8753V20.5225C21.9046 20.5371 21.9339 20.5566 21.9632 20.5762L24.3069 22.1387C24.8782 22.5195 25.137 23.2324 24.9368 23.8916C24.7366 24.5508 24.1263 25 23.4378 25H1.5628C0.874319 25 0.26885 24.5508 0.0686547 23.8916C-0.131541 23.2324 0.122366 22.5195 0.698537 22.1387L3.04229 20.5762C3.07158 20.5566 3.10088 20.542 3.13018 20.5225V10.9375H3.1253Z" fill="#1351B4"/>
</g>
<defs>
<clipPath id="clip0_316_979">
<rect width="25" height="25" fill="white"/>
</clipPath>
</defs>
</svg>

<svg xmlns="http://www.w3.org/2000/svg" width="25" height="25" fill="none"><g clip-path="url(#a)"><path fill="#1351B4" d="M11.724.205a1.57 1.57 0 0 1 1.553 0l8.388 4.79.21.083v.044l2.34 1.338a1.562 1.562 0 0 1-.772 2.92H1.563A1.562 1.562 0 0 1 .79 6.46l2.334-1.338v-.044L3.34 5zM3.125 10.938H6.25v9.375h1.953v-9.375h3.125v9.375h2.344v-9.375h3.125v9.375h1.953v-9.375h3.125v9.585a1 1 0 0 1 .088.053l2.344 1.563c.571.38.83 1.093.63 1.753S24.127 25 23.437 25H1.564A1.56 1.56 0 0 1 .7 22.139l2.343-1.563c.03-.02.059-.034.088-.053v-9.585z"/></g><defs><clipPath id="a"><path fill="#fff" d="M0 0h25v25H0z"/></clipPath></defs></svg>
